X: 8081
T: Conspiracy, The
R: reel
M: 4/4
K: Gmajor
g2 ag fdcA|GAAG DEED|g2 ag fdcA|(3Bcd cA AG G2|
g2 ag fdcA|GAAG DEED|DEGA B2 ge|dBAc BG G2:|
dg g2 ag g2|aged BG G2|dg g2 ag g2|abag fd d2|
dg g2 ag g2|abag f3 g|a2 ge fdeg|fdcA AG G2:|

